src/static/img/logo.svg

<?xml version="1.0" encoding="UTF-8"?>
<svg width="512px" height="512px" viewBox="0 0 512 512" version="1.1" xmlns="http://www.w3.org/2000/svg" xmlns:xlink="http://www.w3.org/1999/xlink">
    <!-- Generator: Sketch 63.1 (92452) - https://sketch.com -->
    <title>blob</title>
    <desc>Created with Sketch.</desc>
    <defs>
        <linearGradient x1="50%" y1="0%" x2="50%" y2="100%" id="linearGradient-1">
            <stop stop-color="#FF1343" offset="0%"></stop>
            <stop stop-color="#FF5420" offset="100%"></stop>
        </linearGradient>
    </defs>
    <g id="Page-1" stroke="none" stroke-width="1" fill="none" fill-rule="evenodd">
        <g id="Artboard" fill="url(#linearGradient-1)" fill-rule="nonzero">
            <g id="blob">
                <path d="M394.886494,100.088276 C443.012409,143.034593 492.786472,181.355921 507.290173,230.579007 C521.793873,279.802093 501.356841,340.587648 465.756849,382.542896 C430.156857,424.828499 379.064275,448.614151 325.005028,471.739091 C271.275411,495.194387 213.919868,517.658614 155.245807,510.721132 C96.9013754,503.78365 36.5791667,467.444459 12.8458386,415.248167 C-10.5578598,363.382231 1.9680633,295.659194 19.1088002,233.88257 C36.2495371,172.436302 58.0050878,116.936447 98.2198937,72.338349 C138.10507,27.7402513 196.449501,-6.28644554 248.860601,0.981392608 C300.942071,8.57958704 347.090208,56.8116039 394.886494,100.088276 Z" id="Path"></path>
            </g>
        </g>
    </g>
</svg>

<svg viewBox="0 0 512 512" xmlns="http://www.w3.org/2000/svg">
  <defs>
    <linearGradient x1="50%" y1="0%" x2="50%" y2="100%" id="a">
      <stop stop-color="#FF1343" offset="0%"/>
      <stop stop-color="#FF5420" offset="100%"/>
    </linearGradient>
  </defs>
  <path d="M394.886 100.088c48.126 42.947 97.9 81.268 112.404 130.491 14.504 49.223-5.933 110.009-41.533 151.964-35.6 42.285-86.693 66.071-140.752 89.196-53.73 23.455-111.085 45.92-169.76 38.982-58.344-6.937-118.666-43.277-142.4-95.473-23.403-51.866-10.877-119.589 6.264-181.365 17.14-61.447 38.896-116.947 79.11-161.545C138.106 27.74 196.45-6.286 248.862.981c52.081 7.599 98.23 55.83 146.025 99.107z" fill="url(#a)" fill-rule="nonzero"/>
</svg>
